X: 26
T: Cliffs Of Moher, The
Z: RobSheldrick
S: https://thesession.org/tunes/12#setting51787
R: jig
M: 6/8
L: 1/8
K: Ddor
|: [AD]dc d2c|Add cAG|[EG,]CC G,CC|EDC EFG|
[AD]dc d2c|Add cAG|[EG,]CC G,CC|ED[DA,] [DA,]3:|
|:[DA]3 GED|ABA G2F|[EG,]CC G,CC|EDC EFG|
[DA]3 GED|ABA G2F|[EG,]CC G,CC|ED[DA,] [DA,]3:|

